X:1
T: Hi Kiwi
C:
R:Strathspey
Q: 128
K:A
M:4/4
L:1/16
|:e4|e4 e2f2 e3d ce3|de3 c3B A4 B3c|d3f e3d ce3 d3c|B3F G3A c3B GE3|
e4 e2f2 e3d ce3|de3 c3B A4 B3c|d3f e3d ce3 d3c|B3F GB3 A4A4|
f4 d3f Af3 df3|e3d c3d e3A ce3|d3c B3A G3E GB3|A3B c3d ((3e2A2B2) ((3c2d2e2) |
f3a d3f A3f df3|e3d c3d e3A ce3|d3c B3A G3E GB3|A4c4A4:|
